img/icon-1.svg

<svg width="70" height="70" viewBox="0 0 70 70" fill="none" xmlns="http://www.w3.org/2000/svg">
<path fill-rule="evenodd" clip-rule="evenodd" d="M65.7317 6H3.41463C1.53659 6 0 7.4 0 9.11111V50.3333C0 52.0444 1.53659 53.4444 3.41463 53.4444H32.5927L30.3638 58.7917L30.3646 58.7886C30.2528 59.0592 30.1726 59.3649 30.1717 59.718C30.1717 59.9926 30.2238 60.2951 30.3561 60.5961C30.549 61.0488 30.9502 61.4688 31.4087 61.706C31.8671 61.9494 32.3409 62.0288 32.7455 62.0288C32.9273 62.0288 33.104 62.0124 33.2748 61.9844L33.273 61.9852L36.073 61.5279L37.8324 63.5626L37.8333 63.5633C38.0348 63.7951 38.2917 64.0214 38.6383 64.2066C38.9815 64.3893 39.4305 64.5247 39.9188 64.5239C40.5343 64.5309 41.1489 64.2921 41.5476 63.9709C41.9565 63.6489 42.1887 63.2787 42.3346 62.9333V62.9325L44.199 58.4595L46.0634 62.9325V62.9333C46.2085 63.2787 46.4424 63.6489 46.8505 63.9709C47.2491 64.2921 47.8646 64.5309 48.4793 64.5239C48.9676 64.5247 49.4157 64.3893 49.7598 64.2066C50.1063 64.0214 50.3641 63.7951 50.5648 63.5633L50.5656 63.5626L52.325 61.5279L55.125 61.9852L55.1233 61.9844C55.2932 62.0124 55.4699 62.0288 55.6526 62.0288C55.924 62.0288 56.2211 61.9938 56.5293 61.8981C56.9885 61.7597 57.4726 61.454 57.785 61.0324C58.1034 60.6132 58.2298 60.1271 58.2263 59.7188C58.2255 59.3664 58.1452 59.06 58.0334 58.7909L55.8054 53.4452H65.7317C67.6097 53.4452 69.1463 52.0452 69.1463 50.3341V9.11189C69.1463 7.4 67.6097 6 65.7317 6ZM60.3374 49.5556L56.9228 46.4444H60.5577L63.9732 49.5556H60.3374ZM43.9634 49.5556C39.4919 49.5556 35.8537 46.2407 35.8537 42.1667C35.8537 38.0927 39.4919 34.7778 43.9634 34.7778C48.4349 34.7778 52.0732 38.0927 52.0732 42.1667C52.0732 46.2407 48.4349 49.5556 43.9634 49.5556ZM43.9634 30.8889C37.1248 30.8889 31.5854 35.9382 31.5854 42.1667C31.5854 42.8309 31.6605 43.4788 31.7817 44.1111H10.2439V15.3333H58.9024V44.1111H56.1451C56.2663 43.4788 56.3415 42.8309 56.3415 42.1667C56.3415 35.9382 50.8021 30.8889 43.9634 30.8889ZM61.4634 45.6192V42.1122L64.878 45.2233V48.7296L61.4634 45.6192ZM61.4634 40.4633V37.1656L64.878 40.2774V43.5744L61.4634 40.4633ZM4.26829 49.5556V9.88889H64.878V38.627L61.4634 35.5151V13.7778C61.4634 13.35 61.0793 13 60.6098 13H8.53658C8.06707 13 7.68293 13.35 7.68293 13.7778V45.6667C7.68293 46.0944 8.06707 46.4444 8.53658 46.4444H32.5124C32.9717 47.4649 33.5889 48.4083 34.3393 49.2522L34.2129 49.5556H4.26829ZM39.3793 59.0693L39.1599 58.815C38.7552 58.3561 38.3071 58.0893 37.8444 57.8941C37.3783 57.7051 36.8874 57.5884 36.3112 57.5853C36.1319 57.5861 35.9373 57.5986 35.7265 57.6343L35.7384 57.632L35.3884 57.6888L37.7889 51.9317C39.0105 52.5741 40.361 53.0299 41.8002 53.2617L39.3793 59.0693ZM52.6699 57.6343C52.459 57.5986 52.2644 57.5861 52.0851 57.5861C51.5089 57.5892 51.018 57.7051 50.5519 57.8941C50.0893 58.0893 49.6419 58.3561 49.2365 58.815L49.0171 59.0693L46.5662 53.1893C47.9927 52.9109 49.3218 52.403 50.5195 51.7193L53.0071 57.688L52.6579 57.6312L52.6699 57.6343ZM53.8991 48.8727C54.4617 48.182 54.9466 47.4377 55.3256 46.6389L58.5268 49.5556H54.1834L53.8991 48.8727ZM18.7805 21.9444H42.6829C43.3906 21.9444 43.9634 22.4671 43.9634 23.1111C43.9634 23.7551 43.3906 24.2778 42.6829 24.2778H18.7805C18.0728 24.2778 17.5 23.7551 17.5 23.1111C17.5 22.4671 18.0728 21.9444 18.7805 21.9444ZM18.7805 29.7222H28.1707C28.8784 29.7222 29.4512 30.2448 29.4512 30.8888C29.4512 31.5328 28.8784 32.0555 28.1707 32.0555H18.7805C18.0728 32.0555 17.5 31.5328 17.5 30.8888C17.5 30.2448 18.0728 29.7222 18.7805 29.7222ZM39.2683 42.1666C39.2683 39.8045 41.3691 37.8888 43.9634 37.8888C46.5577 37.8888 48.6585 39.8045 48.6585 42.1666C48.6585 44.5287 46.5577 46.4444 43.9634 46.4444C41.3691 46.4444 39.2683 44.5287 39.2683 42.1666ZM41.8293 42.1666C41.8293 43.2392 42.7871 44.111 43.9634 44.111C45.1398 44.111 46.0976 43.2392 46.0976 42.1666C46.0976 41.0941 45.1398 40.2222 43.9634 40.2222C42.7871 40.2222 41.8293 41.0941 41.8293 42.1666Z" fill="#0C8543"/>
</svg>

<svg width="70" height="70" fill="none" xmlns="http://www.w3.org/2000/svg"><path fill-rule="evenodd" clip-rule="evenodd" d="M65.732 6H3.415C1.537 6 0 7.4 0 9.111v41.222c0 1.711 1.537 3.111 3.415 3.111h29.178l-2.23 5.348.002-.003c-.112.27-.192.576-.193.929 0 .275.052.577.184.878.193.453.594.873 1.053 1.11.458.243.932.323 1.337.323.181 0 .358-.017.529-.045l-.002.001 2.8-.457 1.76 2.035a2.755 2.755 0 0 0 2.085.96 2.659 2.659 0 0 0 1.63-.552c.408-.322.64-.692.787-1.038l1.864-4.474 1.864 4.473v.001c.145.346.38.716.787 1.038a2.66 2.66 0 0 0 1.63.553 2.758 2.758 0 0 0 2.085-.96v-.001l1.76-2.035 2.8.457h-.002c.17.027.347.044.53.044.271 0 .568-.035.876-.13.46-.14.944-.445 1.256-.867a2.17 2.17 0 0 0 .441-1.313c0-.353-.08-.659-.193-.928l-2.228-5.346h9.927c1.878 0 3.414-1.4 3.414-3.11V9.111C69.146 7.4 67.61 6 65.732 6Zm-5.395 43.556-3.414-3.112h3.635l3.415 3.112h-3.636Zm-16.374 0c-4.471 0-8.11-3.315-8.11-7.39 0-4.073 3.639-7.388 8.11-7.388 4.472 0 8.11 3.315 8.11 7.389s-3.638 7.389-8.11 7.389Zm0-18.667c-6.838 0-12.378 5.05-12.378 11.278 0 .664.075 1.312.197 1.944H10.244V15.333h48.658v28.778h-2.757c.121-.632.197-1.28.197-1.944 0-6.229-5.54-11.278-12.379-11.278Zm17.5 14.73v-3.507l3.415 3.111v3.507l-3.415-3.11Zm0-5.156v-3.297l3.415 3.111v3.297l-3.415-3.11ZM4.268 49.556V9.889h60.61v28.738l-3.415-3.112V13.778c0-.428-.384-.778-.853-.778H8.537c-.47 0-.854.35-.854.778v31.889c0 .427.384.777.854.777h23.975a11.055 11.055 0 0 0 1.827 2.808l-.126.304H4.268Zm35.111 9.513-.22-.254c-.404-.459-.852-.726-1.315-.92a4.03 4.03 0 0 0-1.533-.31c-.18.001-.374.014-.584.05l.011-.003-.35.057 2.4-5.757a13.075 13.075 0 0 0 4.012 1.33l-2.42 5.807Zm13.29-1.435a3.48 3.48 0 0 0-.584-.048 4.03 4.03 0 0 0-1.533.308c-.463.195-.91.462-1.316.921l-.219.254-2.45-5.88a12.985 12.985 0 0 0 3.953-1.47l2.487 5.969-.35-.057.013.003Zm1.23-8.761a11.037 11.037 0 0 0 1.427-2.234l3.2 2.917h-4.343l-.284-.683ZM18.78 21.944h23.903c.708 0 1.28.523 1.28 1.167s-.572 1.167-1.28 1.167H18.78c-.708 0-1.281-.523-1.281-1.167s.573-1.167 1.28-1.167Zm0 7.778h9.39c.708 0 1.281.523 1.281 1.167s-.573 1.167-1.28 1.167h-9.39c-.708 0-1.281-.523-1.281-1.167s.573-1.167 1.28-1.167Zm20.488 12.445c0-2.363 2.101-4.278 4.695-4.278 2.595 0 4.695 1.915 4.695 4.278 0 2.362-2.1 4.277-4.695 4.277-2.594 0-4.695-1.915-4.695-4.277Zm2.561 0c0 1.072.958 1.944 2.134 1.944 1.177 0 2.135-.872 2.135-1.944 0-1.073-.958-1.945-2.135-1.945-1.176 0-2.134.872-2.134 1.945Z" fill="#0C8543"/></svg>
